assets/images/logo/logo.svg

<svg fill="none" height="55" viewBox="0 0 157 55" width="157" xmlns="http://www.w3.org/2000/svg"><path d="m60.7035 14.4004c2.3053 0 4.3067.38 6.004 1.14 1.7227.76 3.04 1.8493 3.952 3.268s1.368 3.1033 1.368 5.054c0 1.9253-.456 3.61-1.368 5.054-.912 1.4187-2.2293 2.508-3.952 3.268-1.6973.76-3.6987 1.14-6.004 1.14h-6.004v7.676h-4.94v-26.6zm-.228 14.744c2.1533 0 3.7873-.456 4.902-1.368s1.672-2.2167 1.672-3.914-.5573-3.002-1.672-3.914-2.7487-1.368-4.902-1.368h-5.776v10.564zm18.9852-14.744h4.94v22.42h13.908v4.18h-18.848zm42.6853 20.444h-13.3l-2.622 6.156h-5.092l11.97-26.6h4.864l12.008 26.6h-5.168zm-1.634-3.876-5.016-11.628-4.978 11.628zm25.225.646v9.386h-4.94v-9.31l-10.45-17.29h5.282l7.79 12.958 7.866-12.958h4.864z" fill="#fff"/><path d="m20 47c11.0457 0 20-8.9543 20-20s-8.9543-20-20-20-20 8.9543-20 20 8.9543 20 20 20z" fill="#fff"/><path clip-rule="evenodd" d="m11.2311 15c-1.71175 0-2.97838 1.4983-2.92168 3.1231.05445 1.5609-.01629 3.5827-.52522 5.2314-.51076 1.6533-1.37397 2.701-2.7842 2.8355v1.5183c1.41023.1348 2.27344 1.1819 2.78414 2.8355.50899 1.6487.57967 3.6704.52522 5.2314-.0567 1.6246 1.20993 3.1231 2.92194 3.1231h17.5399c1.7118 0 2.9782-1.4983 2.9214-3.1231-.0544-1.561.0163-3.5827.5253-5.2314.5107-1.6536 1.3718-2.7012 2.7821-2.8355v-1.5183c-1.4102-.1348-2.2713-1.1819-2.7821-2.8355-.5091-1.6485-.5797-3.6705-.5253-5.2314.0568-1.6246-1.2096-3.1231-2.9214-3.1231zm14.1079 14.7109c0 2.2374-1.6688 3.5942-4.4382 3.5942h-4.7144c-.1348 0-.2641-.0536-.3595-.1489-.0954-.0954-.1489-.2247-.1489-.3596v-11.6949c0-.1348.0535-.2642.1489-.3595.0954-.0954.2247-.1489.3595-.1489h4.6875c2.3093 0 3.8248 1.2508 3.8248 3.1713 0 1.3479-1.0195 2.5547-2.3184 2.7661v.0703c1.7681.1939 2.9587 1.4185 2.9587 3.1099zm-4.9523-7.5058h-2.688v3.7969h2.264c1.7502 0 2.7152-.7048 2.7152-1.9645-.0002-1.1805-.8298-1.8324-2.2912-1.8324zm-2.688 5.3034v4.1842h2.7869c1.8223 0 2.7875-.7312 2.7875-2.1053s-.9923-2.0791-2.9047-2.0791z" fill="#3056d3" fill-rule="evenodd"/></svg>

<svg width="157" height="55" viewBox="0 0 157 55" fill="none" xmlns="http://www.w3.org/2000/svg">
<path d="M60.7035 14.4004C63.0088 14.4004 65.0102 14.7804 66.7075 15.5404C68.4302 16.3004 69.7475 17.3897 70.6595 18.8084C71.5715 20.2271 72.0275 21.9117 72.0275 23.8624C72.0275 25.7877 71.5715 27.4724 70.6595 28.9164C69.7475 30.3351 68.4302 31.4244 66.7075 32.1844C65.0102 32.9444 63.0088 33.3244 60.7035 33.3244H54.6995V41.0004H49.7595V14.4004H60.7035ZM60.4755 29.1444C62.6288 29.1444 64.2628 28.6884 65.3775 27.7764C66.4922 26.8644 67.0495 25.5597 67.0495 23.8624C67.0495 22.1651 66.4922 20.8604 65.3775 19.9484C64.2628 19.0364 62.6288 18.5804 60.4755 18.5804H54.6995V29.1444H60.4755ZM79.4607 14.4004H84.4007V36.8204H98.3087V41.0004H79.4607V14.4004ZM122.146 34.8444H108.846L106.224 41.0004H101.132L113.102 14.4004H117.966L129.974 41.0004H124.806L122.146 34.8444ZM120.512 30.9684L115.496 19.3404L110.518 30.9684H120.512ZM145.737 31.6144V41.0004H140.797V31.6904L130.347 14.4004H135.629L143.419 27.3584L151.285 14.4004H156.149L145.737 31.6144Z" fill="white"/>
<path d="M20 47C31.0457 47 40 38.0457 40 27C40 15.9543 31.0457 7 20 7C8.9543 7 0 15.9543 0 27C0 38.0457 8.9543 47 20 47Z" fill="white"/>
<path fill-rule="evenodd" clip-rule="evenodd" d="M11.2311 15C9.51935 15 8.25272 16.4983 8.30942 18.1231C8.36387 19.684 8.29313 21.7058 7.7842 23.3545C7.27344 25.0078 6.41023 26.0555 5 26.19V27.7083C6.41023 27.8431 7.27344 28.8902 7.78414 30.5438C8.29313 32.1925 8.36381 34.2142 8.30936 35.7752C8.25266 37.3998 9.51929 38.8983 11.2313 38.8983H28.7712C30.483 38.8983 31.7494 37.4 31.6926 35.7752C31.6382 34.2142 31.7089 32.1925 32.2179 30.5438C32.7286 28.8902 33.5897 27.8426 35 27.7083V26.19C33.5898 26.0552 32.7287 25.0081 32.2179 23.3545C31.7088 21.706 31.6382 19.684 31.6926 18.1231C31.7494 16.4985 30.483 15 28.7712 15H11.2311ZM25.339 29.7109C25.339 31.9483 23.6702 33.3051 20.9008 33.3051H16.1864C16.0516 33.3051 15.9223 33.2515 15.8269 33.1562C15.7315 33.0608 15.678 32.9315 15.678 32.7966V21.1017C15.678 20.9669 15.7315 20.8375 15.8269 20.7422C15.9223 20.6468 16.0516 20.5933 16.1864 20.5933H20.8739C23.1832 20.5933 24.6987 21.8441 24.6987 23.7646C24.6987 25.1125 23.6792 26.3193 22.3803 26.5307V26.601C24.1484 26.7949 25.339 28.0195 25.339 29.7109ZM20.3867 22.2051H17.6987V26.002H19.9627C21.7129 26.002 22.6779 25.2972 22.6779 24.0375C22.6777 22.857 21.8481 22.2051 20.3867 22.2051ZM17.6987 27.5085V31.6927H20.4856C22.3079 31.6927 23.2731 30.9615 23.2731 29.5874C23.2731 28.2133 22.2808 27.5083 20.3684 27.5083L17.6987 27.5085Z" fill="#3056D3"/>
</svg>
